app/img/icons/ic--cake.svg

<svg xmlns="http://www.w3.org/2000/svg" preserveAspectRatio="xMidYMid" width="37.07" height="30.219" viewBox="0 0 37.07 30.219"><defs><style>.cls-1{fill:#fff;fill-rule:evenodd}</style></defs><path d="M33.724 22.528v6.454c0 .676-.647 1.221-1.435 1.221H4.766c-.779 0-1.417-.545-1.417-1.221v-6.454c-.707-.199-1.365-.511-1.921-.996-.88-.745-1.415-1.767-1.415-2.893V16.62c0-2.244 2.184-4.106 4.793-4.106h9.221V8.962c0-.407.374-.736.839-.736h2.821v-.503c-1.324-.9-2.204-2.218-2.204-3.69 0-1.611 1.052-3.014 2.559-3.933.313-.156.687-.156.98.017l.01.018c1.507.893 2.559 2.304 2.559 3.898 0 1.456-.89 2.772-2.185 3.673v.52h2.781c.465 0 .86.329.86.736v3.552h9.221c2.609 0 4.793 1.871 4.793 4.106v2.019c0 1.126-.556 2.148-1.415 2.893-.577.485-1.235.797-1.922.996zM17.687 4.709c0-.398.385-.727.849-.727.476 0 .87.329.87.727v.814-.034c.293-.433.465-.936.465-1.456 0-.935-.525-1.784-1.344-2.391-.799.607-1.325 1.456-1.325 2.391 0 .52.162 1.023.445 1.456v.016l.04.053v-.849zm-1.961 7.805h5.602V9.699h-5.602v2.815zm-10.96 7.788h.161c.607.017 1.223-.139 1.729-.364.576-.26 1.082-.641 1.588-1.143 3.074-2.998 4.914-1.611 7.088.016.94.711 1.982 1.491 3.195 1.491a5.09 5.09 0 0 0 1.83-.346 6.38 6.38 0 0 0 1.587-.919l.071-.061c.728-.58 2.114-1.091 3.529-1.091 1.102 0 2.245.286 3.185 1.057l.081.06c.222.191.445.356.687.503h-.009c.232.138.516.277.798.415.283.113.577.209.9.269.859.182 1.79.182 2.437-.389.364-.295.586-.711.586-1.161V16.62c0-.892-.899-1.663-1.941-1.663H4.806c-1.062 0-1.941.771-1.941 1.663v2.019c0 .45.222.866.575 1.161.375.329.84.467 1.326.502zm1.425 2.339v5.111h24.672v-5.129l-.334-.069a7.331 7.331 0 0 1-1.476-.459h-.021a8.772 8.772 0 0 1-2.234-1.36l-.051-.052c-.323-.251-.768-.347-1.203-.347-.687 0-1.304.209-1.587.433l-.091.061a9.744 9.744 0 0 1-2.336 1.36 8.408 8.408 0 0 1-3.003.546c-2.276 0-3.731-1.1-5.066-2.096-1.021-.754-1.88-1.412-3.074-.234-.728.693-1.517 1.273-2.426 1.68a8.452 8.452 0 0 1-1.77.555z" class="cls-1"/></svg>

<svg xmlns="http://www.w3.org/2000/svg" xmlns:xlink="http://www.w3.org/1999/xlink" preserveAspectRatio="xMidYMid" width="37.07" height="30.219" viewBox="0 0 37.07 30.219">
  <defs>
    <style>
      .cls-1 {
        fill: #fff;
        fill-rule: evenodd;
      }
    </style>
  </defs>
  <path d="M33.724,22.528 L33.724,28.982 C33.724,29.658 33.077,30.203 32.289,30.203 L32.248,30.203 L4.766,30.203 C3.987,30.203 3.349,29.658 3.349,28.982 L3.349,28.956 L3.349,22.528 C2.642,22.329 1.984,22.017 1.428,21.532 C0.548,20.787 0.013,19.765 0.013,18.639 L0.013,16.620 C0.013,14.376 2.197,12.514 4.806,12.514 L14.027,12.514 L14.027,8.962 C14.027,8.555 14.401,8.226 14.866,8.226 L14.887,8.226 L17.687,8.226 L17.687,7.723 C16.363,6.823 15.483,5.505 15.483,4.033 C15.483,2.422 16.535,1.019 18.042,0.100 C18.355,-0.056 18.729,-0.056 19.022,0.117 L19.032,0.135 C20.539,1.028 21.591,2.439 21.591,4.033 C21.591,5.489 20.701,6.805 19.406,7.706 L19.406,8.226 L22.187,8.226 C22.652,8.226 23.047,8.555 23.047,8.962 L23.047,8.979 L23.047,12.514 L32.268,12.514 C34.877,12.514 37.061,14.385 37.061,16.620 L37.061,18.639 C37.061,19.765 36.505,20.787 35.646,21.532 C35.069,22.017 34.411,22.329 33.724,22.528 L33.724,22.528 ZM17.687,4.709 L17.687,4.709 C17.687,4.311 18.072,3.982 18.536,3.982 C19.012,3.982 19.406,4.311 19.406,4.709 L19.406,5.523 L19.406,5.489 C19.699,5.056 19.871,4.553 19.871,4.033 C19.871,3.098 19.346,2.249 18.527,1.642 C17.728,2.249 17.202,3.098 17.202,4.033 C17.202,4.553 17.364,5.056 17.647,5.489 L17.647,5.505 L17.687,5.558 L17.687,4.709 L17.687,4.709 ZM15.726,12.514 L15.726,12.514 L21.328,12.514 L21.328,9.699 L15.726,9.699 L15.726,12.514 L15.726,12.514 ZM4.766,20.302 L4.766,20.302 L4.785,20.302 L4.806,20.302 L4.806,20.302 L4.927,20.302 C5.534,20.319 6.150,20.163 6.656,19.938 C7.232,19.678 7.738,19.297 8.244,18.795 C11.318,15.797 13.158,17.184 15.332,18.811 C16.272,19.522 17.314,20.302 18.527,20.302 C19.184,20.302 19.790,20.172 20.357,19.956 C20.923,19.738 21.449,19.418 21.944,19.037 L22.015,18.976 C22.743,18.396 24.129,17.885 25.544,17.885 C26.646,17.885 27.789,18.171 28.729,18.942 L28.810,19.002 C29.032,19.193 29.255,19.358 29.497,19.505 L29.488,19.505 C29.720,19.643 30.004,19.782 30.286,19.920 L30.286,19.920 C30.569,20.033 30.863,20.129 31.186,20.189 C32.045,20.371 32.976,20.371 33.623,19.800 C33.987,19.505 34.209,19.089 34.209,18.639 L34.209,16.620 C34.209,15.728 33.310,14.957 32.268,14.957 C23.107,14.957 13.947,14.957 4.806,14.957 C3.744,14.957 2.865,15.728 2.865,16.620 L2.865,18.639 C2.865,19.089 3.087,19.505 3.440,19.800 C3.815,20.129 4.280,20.267 4.766,20.302 L4.766,20.302 ZM6.191,22.641 L6.191,22.641 L6.191,27.752 L30.863,27.752 L30.863,22.623 L30.529,22.554 C30.004,22.450 29.488,22.285 29.053,22.095 L29.032,22.095 C28.224,21.757 27.445,21.281 26.798,20.735 L26.747,20.683 C26.424,20.432 25.979,20.336 25.544,20.336 C24.857,20.336 24.240,20.545 23.957,20.769 L23.866,20.830 C23.148,21.394 22.359,21.852 21.530,22.190 C20.620,22.537 19.609,22.736 18.527,22.736 C16.251,22.736 14.796,21.636 13.461,20.640 C12.440,19.886 11.581,19.228 10.387,20.406 C9.659,21.099 8.870,21.679 7.961,22.086 C7.414,22.329 6.807,22.519 6.191,22.641 L6.191,22.641 Z" class="cls-1"/>
</svg>
